svg/color/figon.svg

<svg width="40" height="40" viewBox="0 0 40 40" fill="none" xmlns="http://www.w3.org/2000/svg">
<g clip-path="url(#clip0_1312_17)">
<path d="M20 0C31.0457 0 40 8.9543 40 20C40 31.0457 31.0457 40 20 40C8.95431 40 7.90517e-06 31.0457 0 20C6.58765e-07 8.95431 8.95431 1.97595e-06 20 0Z" fill="#FFD7D7"/>
<path d="M26 6C30.4183 6 34 9.58172 34 14V26C34 30.4183 30.4183 34 26 34H14C9.58172 34 6 30.4183 6 26V14C6 9.58172 9.58172 6 14 6H26Z" fill="#FF3737"/>
<path fill-rule="evenodd" clip-rule="evenodd" d="M16.7745 17.483C15.3721 17.483 14.2353 18.6099 14.2353 20C14.2353 21.3901 15.3721 22.517 16.7745 22.517H19.3824V20V17.483H16.7745ZM23.1569 16.2585L23.2255 16.2585C24.6279 16.2585 25.7647 15.1316 25.7647 13.7415C25.7647 12.3514 24.6279 11.2245 23.2255 11.2245H20.6176V16.2585L23.1569 16.2585ZM25.2954 16.8707C26.3221 16.2021 27 15.0503 27 13.7415C27 11.6751 25.3101 10 23.2255 10H20.6176H20H19.3824H16.7745C14.6899 10 13 11.6751 13 13.7415C13 15.0503 13.6779 16.2021 14.7046 16.8707C13.6779 17.5394 13 18.6912 13 20C13 21.3088 13.6779 22.4606 14.7046 23.1293C13.6779 23.7979 13 24.9497 13 26.2585C13 28.3292 14.7113 30 16.7916 30C18.8908 30 20.6176 28.3139 20.6176 26.2245V23.7415V23.1293V22.7683C21.2881 23.3729 22.1791 23.7415 23.1569 23.7415H23.2255C25.3101 23.7415 27 22.0664 27 20C27 18.6912 26.3221 17.5394 25.2954 16.8707ZM23.2255 17.483L23.1569 17.483C21.7545 17.483 20.6176 18.6099 20.6176 20C20.6176 21.3901 21.7545 22.517 23.1569 22.517H23.2255C24.6279 22.517 25.7647 21.3901 25.7647 20C25.7647 18.6099 24.6279 17.483 23.2255 17.483ZM14.2353 26.2585C14.2353 24.8684 15.3721 23.7415 16.7745 23.7415H19.3824V26.2245C19.3824 27.6291 18.2172 28.7755 16.7916 28.7755C15.3849 28.7755 14.2353 27.6443 14.2353 26.2585ZM19.3824 16.2585H16.7745C15.3721 16.2585 14.2353 15.1316 14.2353 13.7415C14.2353 12.3514 15.3721 11.2245 16.7745 11.2245H19.3824V16.2585Z" fill="white"/>
</g>
<defs>
<clipPath id="clip0_1312_17">
<rect width="40" height="40" fill="white"/>
</clipPath>
</defs>
</svg>

<svg xmlns="http://www.w3.org/2000/svg" width="40" height="40" fill="none" viewBox="0 0 40 40"><g clip-path="url(#figon_svg-a)"><path fill="#FFD7D7" d="M20 0c11.046 0 20 8.954 20 20s-8.954 20-20 20S0 31.046 0 20 8.954 0 20 0"/><path fill="#FF3737" d="M26 6a8 8 0 0 1 8 8v12a8 8 0 0 1-8 8H14a8 8 0 0 1-8-8V14a8 8 0 0 1 8-8z"/><path fill="#fff" fill-rule="evenodd" d="M16.775 17.483A2.53 2.53 0 0 0 14.235 20a2.53 2.53 0 0 0 2.54 2.517h2.607v-5.034zm6.382-1.224h.069a2.53 2.53 0 0 0 2.539-2.517 2.53 2.53 0 0 0-2.54-2.517h-2.607v5.034zm2.138.612A3.73 3.73 0 0 0 27 13.74c0-2.064-1.69-3.74-3.774-3.74h-6.452C14.69 10 13 11.675 13 13.742a3.73 3.73 0 0 0 1.705 3.129A3.73 3.73 0 0 0 13 20a3.73 3.73 0 0 0 1.705 3.13A3.73 3.73 0 0 0 13 26.258C13 28.329 14.711 30 16.792 30c2.099 0 3.826-1.686 3.826-3.776V22.77a3.78 3.78 0 0 0 2.539.973h.069C25.31 23.742 27 22.066 27 20a3.73 3.73 0 0 0-1.705-3.13m-2.07.612h-.068A2.53 2.53 0 0 0 20.617 20a2.53 2.53 0 0 0 2.54 2.517h.069A2.53 2.53 0 0 0 25.765 20a2.53 2.53 0 0 0-2.54-2.517m-8.99 8.776a2.53 2.53 0 0 1 2.54-2.518h2.607v2.483c0 1.405-1.165 2.552-2.59 2.552-1.407 0-2.557-1.132-2.557-2.517m5.147-10h-2.608a2.53 2.53 0 0 1-2.539-2.517 2.53 2.53 0 0 1 2.54-2.517h2.607z" clip-rule="evenodd"/></g><defs><clipPath id="figon_svg-a"><path fill="#fff" d="M0 0h40v40H0z"/></clipPath></defs></svg>
